src/assets/bg.svg

<?xml version="1.0" encoding="UTF-8" standalone="no"?>
<svg
   xmlns:dc="http://purl.org/dc/elements/1.1/"
   xmlns:cc="http://creativecommons.org/ns#"
   xmlns:rdf="http://www.w3.org/1999/02/22-rdf-syntax-ns#"
   xmlns:svg="http://www.w3.org/2000/svg"
   xmlns="http://www.w3.org/2000/svg"
   xmlns:xlink="http://www.w3.org/1999/xlink"
   xmlns:sodipodi="http://sodipodi.sourceforge.net/DTD/sodipodi-0.dtd"
   xmlns:inkscape="http://www.inkscape.org/namespaces/inkscape"
   sodipodi:docname="bg.svg"
   inkscape:version="1.0 (4035a4f, 2020-05-01)"
   id="svg8"
   version="1.1"
   viewBox="0 0 105.83333 79.375002"
   height="300"
   width="400">
  <defs
     id="defs2">
    <linearGradient
       id="linearGradient896"
       inkscape:collect="always">
      <stop
         id="stop892"
         offset="0"
         style="stop-color:#000000;stop-opacity:0.14112903" />
      <stop
         style="stop-color:#000000;stop-opacity:0.02822581"
         offset="0.50168067"
         id="stop904" />
      <stop
         style="stop-color:#ffffff;stop-opacity:0.29435483"
         offset="0.53353322"
         id="stop900" />
      <stop
         id="stop894"
         offset="1"
         style="stop-color:#ffffff;stop-opacity:0" />
    </linearGradient>
    <linearGradient
       inkscape:collect="always"
       id="linearGradient847">
      <stop
         style="stop-color:#023a3c;stop-opacity:1;"
         offset="0"
         id="stop843" />
      <stop
         id="stop855"
         offset="0.2146574"
         style="stop-color:#03575b;stop-opacity:1" />
      <stop
         id="stop851"
         offset="0.45456859"
         style="stop-color:#06674e;stop-opacity:1" />
      <stop
         style="stop-color:#387026;stop-opacity:1"
         offset="0.73488593"
         id="stop853" />
      <stop
         style="stop-color:#546321;stop-opacity:0.91764706"
         offset="1"
         id="stop845" />
    </linearGradient>
    <linearGradient
       y2="48.104465"
       x2="0"
       y1="24.720406"
       x1="106.37327"
       gradientUnits="userSpaceOnUse"
       id="linearGradient1649"
       xlink:href="#linearGradient847"
       inkscape:collect="always" />
    <linearGradient
       gradientTransform="scale(0.26458333)"
       gradientUnits="userSpaceOnUse"
       y2="-3.5355339"
       x2="16.920055"
       y1="0"
       x1="1.0101526"
       id="linearGradient898"
       xlink:href="#linearGradient896"
       inkscape:collect="always" />
    <linearGradient
       gradientTransform="matrix(0.26458333,0,0,0.26458333,9.3544334,0)"
       y2="-3.5355339"
       x2="16.920055"
       y1="0"
       x1="1.0101526"
       gradientUnits="userSpaceOnUse"
       id="linearGradient965"
       xlink:href="#linearGradient896"
       inkscape:collect="always" />
    <linearGradient
       gradientTransform="matrix(0.26458333,0,0,0.26458333,37.685003,0)"
       y2="-3.5355339"
       x2="16.920055"
       y1="0"
       x1="1.0101526"
       gradientUnits="userSpaceOnUse"
       id="linearGradient1038"
       xlink:href="#linearGradient896"
       inkscape:collect="always" />
    <linearGradient
       gradientTransform="matrix(0.26458333,0,0,0.26458333,28.33057,0)"
       y2="-3.5355339"
       x2="16.920055"
       y1="0"
       x1="1.0101526"
       gradientUnits="userSpaceOnUse"
       id="linearGradient1040"
       xlink:href="#linearGradient896"
       inkscape:collect="always" />
    <linearGradient
       gradientTransform="translate(346.48232)"
       y2="-3.5355339"
       x2="16.920055"
       y1="0"
       x1="1.0101526"
       gradientUnits="userSpaceOnUse"
       id="linearGradient1177"
       xlink:href="#linearGradient896"
       inkscape:collect="always" />
    <linearGradient
       gradientTransform="matrix(0.26458333,0,0,0.26458333,82.319014,0)"
       y2="-3.5355339"
       x2="16.920055"
       y1="0"
       x1="1.0101526"
       gradientUnits="userSpaceOnUse"
       id="linearGradient1179"
       xlink:href="#linearGradient896"
       inkscape:collect="always" />
    <linearGradient
       gradientTransform="matrix(0.26458333,0,0,0.26458333,63.342878,0)"
       y2="-3.5355339"
       x2="16.920055"
       y1="0"
       x1="1.0101526"
       gradientUnits="userSpaceOnUse"
       id="linearGradient1181"
       xlink:href="#linearGradient896"
       inkscape:collect="always" />
    <linearGradient
       gradientTransform="matrix(0.26458333,0,0,0.26458333,53.988444,0)"
       y2="-3.5355339"
       x2="16.920055"
       y1="0"
       x1="1.0101526"
       gradientUnits="userSpaceOnUse"
       id="linearGradient1183"
       xlink:href="#linearGradient896"
       inkscape:collect="always" />
  </defs>
  <sodipodi:namedview
     inkscape:window-maximized="0"
     inkscape:window-y="23"
     inkscape:window-x="0"
     inkscape:window-height="775"
     inkscape:window-width="1252"
     inkscape:snap-global="false"
     units="px"
     showgrid="false"
     inkscape:document-rotation="0"
     inkscape:current-layer="layer1"
     inkscape:document-units="px"
     inkscape:cy="37.391173"
     inkscape:cx="249.25959"
     inkscape:zoom="0.9899495"
     inkscape:pageshadow="2"
     inkscape:pageopacity="0.0"
     borderopacity="1.0"
     bordercolor="#666666"
     pagecolor="#ffffff"
     id="base" />
  <metadata
     id="metadata5">
    <rdf:RDF>
      <cc:Work
         rdf:about="">
        <dc:format>image/svg+xml</dc:format>
        <dc:type
           rdf:resource="http://purl.org/dc/dcmitype/StillImage" />
        <dc:title />
      </cc:Work>
    </rdf:RDF>
  </metadata>
  <g
     inkscape:label="bg"
     id="layer2"
     inkscape:groupmode="layer"
     style="display:inline">
    <rect
       style="fill:url(#linearGradient1649);fill-opacity:1;fill-rule:evenodd;stroke-width:0.264583"
       id="rect10"
       width="105.83334"
       height="79.375"
       x="0"
       y="-2.5000006e-07" />
  </g>
  <g
     id="layer1"
     inkscape:groupmode="layer"
     inkscape:label="Layer 1">
    <path
       id="rect961"
       style="mix-blend-mode:normal;fill:url(#linearGradient898);fill-opacity:1;fill-rule:evenodd;stroke:none;stroke-width:4.99599;stroke-miterlimit:4;stroke-dasharray:none;stroke-opacity:1;opacity:0.21221865"
       d="M 0.35708415,0 17.25321,79.374999 h 5.108215 L 5.4647827,0 Z" />
    <path
       d="M 9.7115175,0 26.607644,79.374999 h 5.108215 L 14.819216,0 Z"
       style="mix-blend-mode:normal;fill:url(#linearGradient965);fill-opacity:1;fill-rule:evenodd;stroke:none;stroke-width:4.99599;stroke-miterlimit:4;stroke-dasharray:none;stroke-opacity:1;opacity:0.21221865"
       id="rect961-1" />
    <path
       d="M 28.687654,0 45.58378,79.374999 h 5.108215 L 33.795353,0 Z"
       style="mix-blend-mode:normal;fill:url(#linearGradient1040);fill-opacity:1;fill-rule:evenodd;stroke:none;stroke-width:4.99599;stroke-miterlimit:4;stroke-dasharray:none;stroke-opacity:1;opacity:0.21221865"
       id="rect961-2" />
    <path
       id="rect961-1-7"
       style="mix-blend-mode:normal;fill:url(#linearGradient1038);fill-opacity:1;fill-rule:evenodd;stroke:none;stroke-width:4.99599;stroke-miterlimit:4;stroke-dasharray:none;stroke-opacity:1;opacity:0.21221865"
       d="m 38.042087,0 16.896126,79.374999 h 5.108215 L 43.149786,0 Z" />
    <path
       d="m 54.345528,0 16.896126,79.374999 h 5.108215 L 59.453227,0 Z"
       style="mix-blend-mode:normal;fill:url(#linearGradient1183);fill-opacity:1;fill-rule:evenodd;stroke:none;stroke-width:4.99599;stroke-miterlimit:4;stroke-dasharray:none;stroke-opacity:1;opacity:0.21221865"
       id="rect961-5" />
    <path
       id="rect961-1-75"
       style="mix-blend-mode:normal;fill:url(#linearGradient1181);fill-opacity:1;fill-rule:evenodd;stroke:none;stroke-width:4.99599;stroke-miterlimit:4;stroke-dasharray:none;stroke-opacity:1;opacity:0.21221865"
       d="m 63.699962,0 16.896126,79.374999 h 5.108215 L 68.807661,0 Z" />
    <path
       id="rect961-2-8"
       style="mix-blend-mode:normal;fill:url(#linearGradient1179);fill-opacity:1;fill-rule:evenodd;stroke:none;stroke-width:4.99599;stroke-miterlimit:4;stroke-dasharray:none;stroke-opacity:1;opacity:0.21221865"
       d="m 82.676098,0 16.896126,79.374999 h 5.108216 L 87.783797,0 Z" />
    <path
       transform="scale(0.26458333)"
       d="M 347.83203 0 L 400 245.07617 L 400 154.38086 L 367.13672 0 L 347.83203 0 z "
       style="mix-blend-mode:normal;fill:url(#linearGradient1177);fill-opacity:1;fill-rule:evenodd;stroke:none;stroke-width:18.8825;stroke-miterlimit:4;stroke-dasharray:none;stroke-opacity:1;opacity:0.21221865"
       id="rect961-1-7-6" />
  </g>
</svg>

<?xml version="1.0" encoding="UTF-8"?>
<svg width="400" height="300" version="1.1" viewBox="0 0 105.83 79.375" xmlns="http://www.w3.org/2000/svg" xmlns:cc="http://creativecommons.org/ns#" xmlns:dc="http://purl.org/dc/elements/1.1/" xmlns:rdf="http://www.w3.org/1999/02/22-rdf-syntax-ns#" xmlns:xlink="http://www.w3.org/1999/xlink">
<defs>
<linearGradient id="a">
<stop stop-opacity=".14113" offset="0"/>
<stop stop-opacity=".028226" offset=".50168"/>
<stop stop-color="#fff" stop-opacity=".29435" offset=".53353"/>
<stop stop-color="#fff" stop-opacity="0" offset="1"/>
</linearGradient>
<linearGradient id="d" x1="106.37" x2="0" y1="24.72" y2="48.104" gradientUnits="userSpaceOnUse">
<stop stop-color="#023a3c" offset="0"/>
<stop stop-color="#03575b" offset=".21466"/>
<stop stop-color="#06674e" offset=".45457"/>
<stop stop-color="#387026" offset=".73489"/>
<stop stop-color="#546321" stop-opacity=".91765" offset="1"/>
</linearGradient>
<linearGradient id="c" x1="1.0102" x2="16.92" y2="-3.5355" gradientTransform="scale(.26458)" gradientUnits="userSpaceOnUse" xlink:href="#a"/>
<linearGradient id="b" x1="1.0102" x2="16.92" y2="-3.5355" gradientTransform="matrix(.26458 0 0 .26458 9.3544 0)" gradientUnits="userSpaceOnUse" xlink:href="#a"/>
<linearGradient id="j" x1="1.0102" x2="16.92" y2="-3.5355" gradientTransform="matrix(.26458 0 0 .26458 37.685 0)" gradientUnits="userSpaceOnUse" xlink:href="#a"/>
<linearGradient id="i" x1="1.0102" x2="16.92" y2="-3.5355" gradientTransform="matrix(.26458 0 0 .26458 28.331 0)" gradientUnits="userSpaceOnUse" xlink:href="#a"/>
<linearGradient id="h" x1="1.0102" x2="16.92" y2="-3.5355" gradientTransform="translate(346.48)" gradientUnits="userSpaceOnUse" xlink:href="#a"/>
<linearGradient id="g" x1="1.0102" x2="16.92" y2="-3.5355" gradientTransform="matrix(.26458 0 0 .26458 82.319 0)" gradientUnits="userSpaceOnUse" xlink:href="#a"/>
<linearGradient id="f" x1="1.0102" x2="16.92" y2="-3.5355" gradientTransform="matrix(.26458 0 0 .26458 63.343 0)" gradientUnits="userSpaceOnUse" xlink:href="#a"/>
<linearGradient id="e" x1="1.0102" x2="16.92" y2="-3.5355" gradientTransform="matrix(.26458 0 0 .26458 53.988 0)" gradientUnits="userSpaceOnUse" xlink:href="#a"/>
</defs>
<metadata>
<rdf:RDF>
<cc:Work rdf:about="">
<dc:format>image/svg+xml</dc:format>
<dc:type rdf:resource="http://purl.org/dc/dcmitype/StillImage"/>
<dc:title/>
</cc:Work>
</rdf:RDF>
</metadata>
<g>
<rect y="-2.5e-7" width="105.83" height="79.375" fill="url(#d)" fill-rule="evenodd" stroke-width=".26458"/>
</g>
<g fill-rule="evenodd">
<path d="m0.35708 0 16.896 79.375h5.1082l-16.897-79.375z" fill="url(#c)" opacity=".21222" style="mix-blend-mode:normal"/>
<path d="m9.7115 0 16.896 79.375h5.1082l-16.897-79.375z" fill="url(#b)" opacity=".21222" style="mix-blend-mode:normal"/>
<path d="m28.688 0 16.896 79.375h5.1082l-16.897-79.375z" fill="url(#i)" opacity=".21222" style="mix-blend-mode:normal"/>
<path d="m38.042 0 16.896 79.375h5.1082l-16.897-79.375z" fill="url(#j)" opacity=".21222" style="mix-blend-mode:normal"/>
<path d="m54.346 0 16.896 79.375h5.1082l-16.897-79.375z" fill="url(#e)" opacity=".21222" style="mix-blend-mode:normal"/>
<path d="m63.7 0 16.896 79.375h5.1082l-16.897-79.375z" fill="url(#f)" opacity=".21222" style="mix-blend-mode:normal"/>
<path d="m82.676 0 16.896 79.375h5.1082l-16.897-79.375z" fill="url(#g)" opacity=".21222" style="mix-blend-mode:normal"/>
<path transform="scale(.26458)" d="m347.83 0 52.168 245.08v-90.695l-32.863-154.38h-19.305z" fill="url(#h)" opacity=".21222" style="mix-blend-mode:normal"/>
</g>
</svg>
